app/client/src/assets/icons/blueprintjs/20px/cube-remove.svg

<?xml version="1.0" encoding="UTF-8"?>
<svg width="20px" height="20px" viewBox="0 0 20 20" version="1.1" xmlns="http://www.w3.org/2000/svg" xmlns:xlink="http://www.w3.org/1999/xlink">
    <!-- Generator: Sketch 52.3 (67297) - http://www.bohemiancoding.com/sketch -->
    <title>Artboard</title>
    <desc>Created with Sketch.</desc>
    <g id="Artboard" stroke="none" stroke-width="1" fill="none" fill-rule="evenodd">
        <path d="M11.9675912,1.18237191 C10.819359,1.60321911 10,2.70592378 10,4 C10,5.65685425 11.3431458,7 13,7 L13.7693759,7 L10,9.21974356 L1.95316591,4.48105238 L9.36210708,0.460859421 C9.75737765,0.246380193 10.2426223,0.246380193 10.6378929,0.460859421 L11.9675912,1.18237191 Z M19,7 L19,14.0567952 C19,14.4949166 18.7527751,14.8994475 18.3521786,15.1168166 L10.6378929,19.3026937 C10.5930013,19.3270525 10.5469491,19.3486448 10.5,19.3674707 L10.5,10.085812 L15.7400581,7 L19,7 Z M1.13596449,5.16032441 L9.5,10.085812 L9.5,19.3674707 C9.45305089,19.3486448 9.40699872,19.3270525 9.36210708,19.3026937 L1.64782136,15.1168166 C1.24722494,14.8994475 1,14.4949166 1,14.0567952 L1,5.70675791 C1,5.51371288 1.04799771,5.32718932 1.13596449,5.16032441 Z M13,3 L19,3 C19.5522847,3 20,3.44771525 20,4 C20,4.55228475 19.5522847,5 19,5 L13,5 C12.4477153,5 12,4.55228475 12,4 C12,3.44771525 12.4477153,3 13,3 Z" id="Combined-Shape" fill="#000000" fill-rule="nonzero"></path>
    </g>
</svg>

<svg xmlns="http://www.w3.org/2000/svg" width="20" height="20"><path fill-rule="nonzero" d="M11.968 1.182A3.001 3.001 0 0 0 13 7h.77L10 9.22 1.953 4.48l7.41-4.02c.394-.215.88-.215 1.275 0l1.33.721ZM19 7v7.057c0 .438-.247.842-.648 1.06l-7.714 4.186c-.045.024-.091.046-.138.064v-9.281L15.74 7H19ZM1.136 5.16 9.5 10.086v9.281a1.316 1.316 0 0 1-.138-.064l-7.714-4.186A1.211 1.211 0 0 1 1 14.057v-8.35c0-.193.048-.38.136-.547ZM13 3h6a1 1 0 0 1 0 2h-6a1 1 0 0 1 0-2Z"/></svg>
